X:1
T:Title
%%score ( 1 2 ) { 3 | ( 4 5 ) }
L:1/8
Q:1/4=112
M:3/4
K:Bb
V:1 treble nm="Grand Piano, Staff 1"
V:2 treble 
V:3 bass nm="Choir Pad, Trust (Mendelssohn)"
V:4 bass 
V:5 bass 
V:1
 z2 z2 G2 | [CF]2 [B,B]2 dc | z2 z2 G2 | [FA]2 [FB]2 [Ed]2 | d-[Bd] c-[Gc] [FB]2- | %5
 [FB]2 F2 [DF]2 | z2 z2 B2 | [Bd][Ac] [GB]2 [^FA]2 | [GB]2 [FA][EG] [DF]2 | B2 z2 c2 | [DB]6- | %11
 [DB]2 z2 z2 |] %12
V:2
 [DF]2 F2 ED | z2 z2 G2 | [FB]2 [FA]2 F=E | x6 | .F2 .A2 z2 | x6 | [EG]2 [EF]2 DF | x6 | x6 | %9
 FG [Fd]2 FE | x6 | x6 |] %12
V:3
 B,2 B,2 B,2 | A,2 B,[K:treble]F FE | D2 C2 C2 | C2 B,2 B,2 | B,D FE D2- | D2 D2 DC | B,2 C2 D2 | %7
 DE D2 D2 | D2 C2 D2 | B,2 B,2 A,2 | B,6- | B,2 z2 z2 |] %12
V:4
 B,,2 D,2 E,2 | E,2 D,2 E,2 | F,2 F,2 C,2 | F,E, D,2 G,2 | F,2 z2 B,,2- | B,,2 B,2 _A,2 | %6
 G,2 A,2 B,2 | B,,C, D,2 D,2 | G,,2 A,,2 B,,2 | z2 z2 F,2- | F,6- | F,2 z2 z2 |] %12
V:5
 x6 | x6 | x6 | x6 | z2 D,4- | D,2 z2 z2 | x6 | x6 | x6 | D,E, F,2 z2 | B,,6- | B,,2 z2 z2 |] %12

